;FLAVOR:Marlin
;TIME:1364
;Filament used: 0.267095m
;Layer height: 0.12
;MINX:95.051
;MINY:95.052
;MINZ:0.2
;MAXX:124.95
;MAXY:124.949
;MAXZ:16.96
;Generated with Cura_SteamEngine 5.2.1
M82 ;absolute extrusion mode
; Ender 3 Custom Start G-code
G92 E0 ; Reset Extruder
G28 ; Home all axes
M104 S205.0 ; Start heating up the nozzle most of the way
M190 S90.0 ; Start heating the bed, wait until target temperature reached
M109 S240.0 ; Finish heating the nozzle
G1 Z2.0 F3000 ; Move Z Axis up little to prevent scratching of Heat Bed
G1 X0.1 Y20 Z0.3 F5000.0 ; Move to start position
G1 X0.1 Y200.0 Z0.3 F1500.0 E15 ; Draw the first line
G1 X0.4 Y200.0 Z0.3 F5000.0 ; Move to side a little
G1 X0.4 Y20 Z0.3 F1500.0 E30 ; Draw the second line
G92 E0 ; Reset Extruder
G1 Z2.0 F3000 ; Move Z Axis up little to prevent scratching of Heat Bed
G1 X5 Y20 Z0.3 F5000.0 ; Move over to prevent blob squish
G92 E0
G92 E0
G1 F1200 E-3
;LAYER_COUNT:145
;LAYER:0
M107
G0 F6000 X99.25 Y99.614 Z0.2
;TYPE:SKIRT
G1 F1200 E0
G1 F900 X100.054 Y98.829 E0.03737
G1 X100.931 Y98.117 E0.07495
G1 X101.441 Y97.741 E0.09602
G1 X102.219 Y97.217 E0.12722
G1 X103.017 Y96.773 E0.15759
G1 X103.497 Y96.531 E0.17547
G1 X104.352 Y96.145 E0.20667
G1 X104.848 Y95.959 E0.22429
G1 X105.304 Y95.801 E0.24034
G1 X106.568 Y95.446 E0.28401
G1 X106.982 Y95.356 E0.2981
G1 X107.863 Y95.202 E0.32785
G1 X108.17 Y95.161 E0.33815
G1 X109.157 Y95.074 E0.3711
G1 X109.672 Y95.052 E0.38825
G1 X110.609 Y95.052 E0.41941
G1 X111.247 Y95.098 E0.44069
G1 X111.633 Y95.137 E0.45359
G1 X112.429 Y95.247 E0.48032
G1 X112.748 Y95.303 E0.49109
G1 X113.81 Y95.544 E0.52731
G1 X114.196 Y95.652 E0.54064
G1 X115.074 Y95.938 E0.57135
G1 X115.471 Y96.086 E0.58545
G1 X116.509 Y96.529 E0.62298
G1 X117.347 Y96.973 E0.65453
G1 X117.665 Y97.157 E0.66675
G1 X118.784 Y97.899 E0.7114
G1 X119.229 Y98.235 E0.72995
G1 X119.953 Y98.832 E0.76116
G1 X120.321 Y99.178 E0.77796
G1 X120.591 Y99.444 E0.79057
G1 X121.182 Y100.074 E0.8193
G1 X121.371 Y100.292 E0.82889
G1 X121.976 Y101.056 E0.86131
G1 X122.338 Y101.557 E0.88186
G1 X122.854 Y102.34 E0.91305
G1 X123.294 Y103.147 E0.94362
G1 X123.439 Y103.442 E0.95456
G1 X123.71 Y104.037 E0.9763
G1 X123.906 Y104.504 E0.99315
G1 X124.232 Y105.384 E1.02436
G1 X124.494 Y106.341 E1.05736
G1 X124.655 Y107.055 E1.08171
G1 X124.822 Y107.978 E1.1129
G1 X124.896 Y108.696 E1.13691
G1 X124.922 Y109.062 E1.14912
G1 X124.95 Y109.906 E1.1772
G1 X124.948 Y110.247 E1.18854
G1 X124.897 Y111.244 E1.22175
G1 X124.858 Y111.646 E1.23518
G1 X124.721 Y112.609 E1.26753
G1 X124.662 Y112.924 E1.27819
G1 X124.421 Y113.942 E1.31299
G1 X124.307 Y114.338 E1.32669
G1 X123.992 Y115.272 E1.35948
G1 X123.897 Y115.517 E1.36822
G1 X123.491 Y116.436 E1.40163
G1 X123.236 Y116.949 E1.42069
G1 X122.783 Y117.771 E1.4519
G1 X122.422 Y118.326 E1.47392
G1 X122.22 Y118.617 E1.48571
G1 X121.695 Y119.313 E1.5147
G1 X121.451 Y119.611 E1.52751
G1 X120.74 Y120.399 E1.56281
G1 X120.381 Y120.76 E1.57975
G1 X119.692 Y121.396 E1.61093
G1 X119.203 Y121.786 E1.63174
G1 X118.886 Y122.025 E1.64494
G1 X118.088 Y122.574 E1.67716
G1 X117.665 Y122.838 E1.69374
G1 X116.849 Y123.3 E1.72493
G1 X116.286 Y123.568 E1.74567
G1 X115.908 Y123.735 E1.75941
G1 X115.064 Y124.067 E1.78958
G1 X114.605 Y124.226 E1.80574
G1 X113.706 Y124.495 E1.83695
G1 X113.058 Y124.638 E1.85902
G1 X112.553 Y124.734 E1.87611
G1 X111.214 Y124.905 E1.92101
G1 X110.861 Y124.928 E1.93278
G1 X109.937 Y124.949 E1.96352
G1 X109.517 Y124.941 E1.97749
G1 X108.542 Y124.879 E2.00998
G1 X108.228 Y124.845 E2.02049
G1 X107.161 Y124.676 E2.05642
G1 X106.63 Y124.565 E2.07446
G1 X105.721 Y124.334 E2.10566
G1 X105.09 Y124.124 E2.12778
G1 X104.548 Y123.925 E2.14698
G1 X103.682 Y123.565 E2.17817
G1 X103.048 Y123.243 E2.20182
G1 X102.616 Y123.006 E2.21821
G1 X101.502 Y122.305 E2.26199
G1 X101.206 Y122.093 E2.2741
G1 X100.569 Y121.6 E2.30089
G1 X100.281 Y121.36 E2.31336
G1 X99.474 Y120.617 E2.34984
G1 X99.202 Y120.34 E2.36275
G1 X98.584 Y119.655 E2.39344
G1 X98.409 Y119.444 E2.40256
G1 X97.79 Y118.623 E2.43676
G1 X97.444 Y118.116 E2.45717
G1 X96.949 Y117.319 E2.48838
G1 X96.555 Y116.552 E2.51706
G1 X96.33 Y116.068 E2.53481
G1 X95.971 Y115.202 E2.56599
G1 X95.791 Y114.666 E2.58479
G1 X95.699 Y114.367 E2.5952
G1 X95.514 Y113.686 E2.61867
G1 X95.387 Y113.154 E2.63686
G1 X95.208 Y112.233 E2.66807
G1 X95.126 Y111.536 E2.69141
G1 X95.095 Y111.173 E2.70353
G1 X95.057 Y110.439 E2.72797
G1 X95.051 Y110.112 E2.73885
G1 X95.083 Y109.041 E2.77449
G1 X95.13 Y108.448 E2.79427
G1 X95.244 Y107.517 E2.82547
G1 X95.415 Y106.686 E2.85369
G1 X95.531 Y106.215 E2.86982
G1 X95.926 Y104.948 E2.91396
G1 X96.059 Y104.597 E2.92645
G1 X96.404 Y103.785 E2.95579
G1 X96.63 Y103.308 E2.97335
G1 X97.068 Y102.478 E3.00456
G1 X97.459 Y101.856 E3.029
G1 X97.693 Y101.51 E3.04289
G1 X98.212 Y100.795 E3.07227
G1 X98.921 Y99.966 E3.10856
G1 X99.25 Y99.614 E3.12458
G0 F6000 X99.542 Y99.887
G1 F900 X100.321 Y99.127 E3.16078
G1 X101.169 Y98.439 E3.1971
G1 X101.679 Y98.063 E3.21817
G1 X102.443 Y97.549 E3.2488
G1 X103.197 Y97.13 E3.27749
G1 X103.677 Y96.888 E3.29537
G1 X104.516 Y96.51 E3.32597
G1 X104.979 Y96.337 E3.34241
G1 X105.435 Y96.179 E3.35846
G1 X106.653 Y95.837 E3.40054
G1 X107.067 Y95.747 E3.41463
G1 X107.916 Y95.598 E3.4433
G1 X108.223 Y95.557 E3.4536
G1 X109.174 Y95.474 E3.48536
G1 X109.689 Y95.452 E3.5025
G1 X110.609 Y95.452 E3.5331
G1 X111.207 Y95.496 E3.55304
G1 X111.593 Y95.535 E3.56595
G1 X112.36 Y95.641 E3.5917
G1 X112.679 Y95.697 E3.60247
G1 X113.702 Y95.929 E3.63736
G1 X114.088 Y96.037 E3.65069
G1 X114.935 Y96.313 E3.68032
G1 X115.332 Y96.461 E3.69441
G1 X116.335 Y96.889 E3.73068
G1 X117.147 Y97.319 E3.76124
G1 X117.465 Y97.503 E3.77346
G1 X118.543 Y98.219 E3.81651
G1 X118.988 Y98.555 E3.83505
G1 X119.698 Y99.141 E3.86567
G1 X120.31 Y99.729 E3.8939
G1 X120.88 Y100.336 E3.92159
G1 X121.069 Y100.554 E3.93119
G1 X121.652 Y101.29 E3.96242
G1 X122.014 Y101.791 E3.98298
G1 X122.52 Y102.56 E4.01359
G1 X122.935 Y103.323 E4.04248
G1 X123.08 Y103.618 E4.05342
G1 X123.341 Y104.192 E4.07439
G1 X123.537 Y104.659 E4.09123
G1 X123.856 Y105.522 E4.12183
G1 X124.103 Y106.429 E4.1531
G1 X124.264 Y107.143 E4.17744
G1 X124.428 Y108.049 E4.20807
G1 X124.497 Y108.724 E4.23064
G1 X124.523 Y109.09 E4.24284
G1 X124.55 Y109.903 E4.26989
G1 X124.548 Y110.244 E4.28124
G1 X124.498 Y111.206 E4.31328
G1 X124.459 Y111.608 E4.32671
G1 X124.328 Y112.535 E4.35785
G1 X124.269 Y112.85 E4.36851
G1 X124.036 Y113.831 E4.40204
G1 X123.922 Y114.227 E4.41575
G1 X123.619 Y115.127 E4.44733
G1 X123.524 Y115.372 E4.45607
G1 X123.133 Y116.258 E4.48828
G1 X122.878 Y116.771 E4.50734
G1 X122.433 Y117.577 E4.53796
G1 X122.094 Y118.098 E4.55863
G1 X121.892 Y118.389 E4.57042
G1 X121.385 Y119.059 E4.59836
G1 X121.141 Y119.357 E4.61117
G1 X120.456 Y120.116 E4.64518
G1 X120.097 Y120.477 E4.66211
G1 X119.42 Y121.101 E4.69273
G1 X118.962 Y121.467 E4.71223
G1 X118.645 Y121.706 E4.72544
G1 X117.876 Y122.234 E4.75646
G1 X117.453 Y122.498 E4.77305
G1 X116.652 Y122.951 E4.80365
G1 X116.125 Y123.202 E4.82307
G1 X115.747 Y123.369 E4.83681
G1 X114.933 Y123.689 E4.8659
G1 X114.474 Y123.848 E4.88206
G1 X113.591 Y124.111 E4.9127
G1 X112.984 Y124.246 E4.93339
G1 X112.479 Y124.342 E4.95048
G1 X111.188 Y124.506 E4.99377
G1 X110.835 Y124.529 E5.00553
G1 X109.944 Y124.549 E5.03517
G1 X109.524 Y124.541 E5.04915
G1 X108.585 Y124.481 E5.08044
G1 X108.271 Y124.447 E5.09095
G1 X107.243 Y124.285 E5.12556
G1 X106.712 Y124.174 E5.1436
G1 X105.82 Y123.946 E5.17422
G1 X105.228 Y123.749 E5.19498
G1 X104.686 Y123.55 E5.21418
G1 X103.836 Y123.195 E5.24482
G1 X103.241 Y122.892 E5.26703
G1 X102.809 Y122.655 E5.28341
G1 X101.735 Y121.98 E5.3256
G1 X101.439 Y121.768 E5.33771
G1 X100.825 Y121.293 E5.36353
G1 X100.537 Y121.053 E5.376
G1 X99.76 Y120.337 E5.41115
G1 X99.488 Y120.06 E5.42406
G1 X98.892 Y119.4 E5.45363
G1 X98.717 Y119.189 E5.46275
G1 X98.121 Y118.397 E5.49572
G1 X97.775 Y117.89 E5.51614
G1 X97.289 Y117.108 E5.54676
G1 X96.918 Y116.383 E5.57385
G1 X96.693 Y115.899 E5.5916
G1 X96.341 Y115.049 E5.6222
G1 X96.082 Y114.249 E5.65017
G1 X95.903 Y113.593 E5.67278
G1 X95.776 Y113.061 E5.69097
G1 X95.601 Y112.157 E5.7216
G1 X95.524 Y111.502 E5.74353
G1 X95.493 Y111.139 E5.75565
G1 X95.457 Y110.431 E5.77923
G1 X95.451 Y110.104 E5.79011
G1 X95.482 Y109.072 E5.82445
G1 X95.529 Y108.479 E5.84423
G1 X95.642 Y107.566 E5.87483
G1 X95.804 Y106.782 E5.90146
G1 X95.92 Y106.311 E5.91759
G1 X96.3 Y105.09 E5.96012
G1 X96.433 Y104.739 E5.97261
G1 X96.766 Y103.956 E6.00091
G1 X96.992 Y103.479 E6.01846
G1 X97.422 Y102.665 E6.04908
G1 X97.791 Y102.08 E6.07209
G1 X98.025 Y101.734 E6.08598
G1 X98.527 Y101.042 E6.11441
G1 X99.213 Y100.239 E6.14954
G1 X99.542 Y99.887 E6.16557
G0 F6000 X99.834 Y100.16
G1 F900 X100.587 Y99.425 E6.20056
G1 X101.406 Y98.761 E6.23563
G1 X101.916 Y98.385 E6.25671
G1 X102.666 Y97.882 E6.28674
G1 X103.377 Y97.487 E6.31379
G1 X103.857 Y97.245 E6.33167
G1 X104.681 Y96.875 E6.36172
G1 X105.11 Y96.715 E6.37695
G1 X105.566 Y96.557 E6.393
G1 X106.738 Y96.228 E6.43348
G1 X107.152 Y96.138 E6.44758
G1 X107.969 Y95.995 E6.47516
G1 X108.276 Y95.954 E6.48546
G1 X109.191 Y95.873 E6.51602
G1 X109.706 Y95.851 E6.53316
G1 X110.609 Y95.853 E6.56319
G1 X111.166 Y95.894 E6.58177
G1 X111.552 Y95.933 E6.59467
G1 X112.291 Y96.035 E6.61949
G1 X112.61 Y96.091 E6.63026
G1 X113.594 Y96.314 E6.66382
G1 X113.98 Y96.422 E6.67715
G1 X114.795 Y96.688 E6.70566
G1 X115.192 Y96.836 E6.71975
G1 X116.161 Y97.249 E6.75479
G1 X116.946 Y97.665 E6.78434
G1 X117.264 Y97.849 E6.79656
G1 X118.302 Y98.538 E6.83799
G1 X118.747 Y98.874 E6.85654
G1 X119.759 Y99.748 E6.90101
G1 X120.029 Y100.014 E6.91362
G1 X120.578 Y100.598 E6.94028
G1 X120.767 Y100.816 E6.94988
G1 X121.328 Y101.524 E6.97992
G1 X121.69 Y102.025 E7.00048
G1 X122.186 Y102.78 E7.03052
G1 X122.576 Y103.5 E7.05776
G1 X122.721 Y103.795 E7.06869
G1 X122.972 Y104.347 E7.08886
G1 X123.168 Y104.814 E7.10571
G1 X123.481 Y105.661 E7.13574
G1 X123.713 Y106.517 E7.16524
G1 X123.874 Y107.231 E7.18958
G1 X124.034 Y108.12 E7.21962
G1 X124.098 Y108.752 E7.24075
G1 X124.124 Y109.118 E7.25296
G1 X124.15 Y109.901 E7.27901
G1 X124.148 Y110.242 E7.29035
G1 X124.1 Y111.167 E7.32116
G1 X124.061 Y111.569 E7.33459
G1 X123.935 Y112.462 E7.36459
G1 X123.876 Y112.777 E7.37525
G1 X123.652 Y113.721 E7.40752
G1 X123.538 Y114.117 E7.42122
G1 X123.246 Y114.983 E7.45162
G1 X123.151 Y115.228 E7.46036
G1 X122.775 Y116.08 E7.49134
G1 X122.52 Y116.593 E7.51039
G1 X122.082 Y117.383 E7.54043
G1 X121.765 Y117.869 E7.55973
G1 X121.563 Y118.16 E7.57151
G1 X121.076 Y118.806 E7.59842
G1 X120.832 Y119.104 E7.61123
G1 X120.172 Y119.834 E7.64396
G1 X119.813 Y120.195 E7.6609
G1 X119.149 Y120.807 E7.69093
G1 X118.722 Y121.148 E7.70911
G1 X118.405 Y121.387 E7.72231
G1 X117.664 Y121.895 E7.75219
G1 X117.241 Y122.159 E7.76878
G1 X116.455 Y122.603 E7.7988
G1 X115.963 Y122.836 E7.81691
G1 X115.585 Y123.003 E7.83065
G1 X114.802 Y123.311 E7.85864
G1 X114.343 Y123.47 E7.87479
G1 X113.477 Y123.728 E7.90485
G1 X112.909 Y123.853 E7.92419
G1 X112.404 Y123.949 E7.94129
G1 X111.162 Y124.106 E7.98293
G1 X110.809 Y124.129 E7.99469
G1 X109.952 Y124.149 E8.02321
G1 X109.532 Y124.141 E8.03718
G1 X108.628 Y124.084 E8.0673
G1 X108.314 Y124.05 E8.07781
G1 X107.325 Y123.893 E8.11112
G1 X106.794 Y123.782 E8.12916
G1 X105.919 Y123.558 E8.1592
G1 X105.365 Y123.373 E8.17863
G1 X104.823 Y123.174 E8.19783
G1 X103.99 Y122.826 E8.22786
G1 X103.433 Y122.542 E8.24865
G1 X103.001 Y122.305 E8.26504
G1 X101.968 Y121.655 E8.30563
G1 X101.672 Y121.443 E8.31774
G1 X101.081 Y120.986 E8.34259
G1 X100.793 Y120.746 E8.35506
G1 X100.045 Y120.057 E8.38888
G1 X99.773 Y119.78 E8.4018
G1 X99.2 Y119.145 E8.43024
G1 X99.025 Y118.934 E8.43936
G1 X98.451 Y118.172 E8.47109
G1 X98.105 Y117.665 E8.49151
G1 X97.629 Y116.897 E8.52156
G1 X97.281 Y116.215 E8.54702
G1 X97.056 Y115.731 E8.56478
G1 X96.712 Y114.896 E8.59481
G1 X96.464 Y114.132 E8.62153
G1 X96.292 Y113.5 E8.64331
G1 X96.165 Y112.968 E8.66151
G1 X95.994 Y112.082 E8.69152
G1 X95.923 Y111.468 E8.71208
G1 X95.892 Y111.105 E8.72419
G1 X95.857 Y110.424 E8.74687
G1 X95.851 Y110.097 E8.75775
G1 X95.881 Y109.104 E8.79079
G1 X95.928 Y108.511 E8.81058
G1 X96.039 Y107.615 E8.84061
G1 X96.192 Y106.878 E8.86564
G1 X96.308 Y106.407 E8.88178
G1 X96.674 Y105.232 E8.92271
G1 X96.807 Y104.881 E8.93519
G1 X97.127 Y104.128 E8.96241
G1 X97.353 Y103.651 E8.97996
G1 X97.776 Y102.852 E9.01003
G1 X98.122 Y102.304 E9.03159
G1 X98.356 Y101.958 E9.04548
G1 X98.842 Y101.288 E9.07301
G1 X99.505 Y100.512 E9.10696
G1 X99.834 Y100.16 E9.12298
G1 F1200 E6.12298
;MESH:Corps1.stl
G0 F6000 X107.786 Y110.621
G0 X108.487 Y111.352
G0 X109.016 Y111.717
G0 X110.147 Y112.156
;TYPE:WALL-INNER
G1 F1200 E9.12298
G1 F900 X109.591 Y112.119 E9.14152
G1 X109.06 Y111.946 E9.16009
G1 X108.435 Y111.509 E9.18546
G1 X108.276 Y111.303 E9.19411
G1 X108.142 Y111.062 E9.20328
G1 X107.977 Y110.751 E9.21499
G1 X107.842 Y110.116 E9.23658
G1 X107.893 Y109.489 E9.25751
G1 X107.962 Y109.265 E9.2653
G1 X108.242 Y108.751 E9.28477
G1 X108.606 Y108.35 E9.30278
G1 X109.087 Y108.047 E9.32169
G1 X109.59 Y107.88 E9.33932
G1 X110.167 Y107.845 E9.35854
G1 X110.806 Y107.996 E9.38038
G1 X111.301 Y108.274 E9.39927
G1 X111.691 Y108.659 E9.41749
G1 X112.02 Y109.197 E9.43847
G1 X112.087 Y109.442 E9.44692
G1 X112.158 Y109.982 E9.46503
G1 X112.09 Y110.539 E9.48369
G1 X111.818 Y111.168 E9.50649
G1 X111.404 Y111.627 E9.52705
G1 X111.225 Y111.766 E9.53458
G1 X110.709 Y112.043 E9.55406
G1 X110.147 Y112.156 E9.57313
G0 F6000 X110.14 Y111.75
G1 F900 X109.667 Y111.722 E9.58889
G1 X109.235 Y111.581 E9.604
G1 X108.669 Y111.187 E9.62694
G1 X108.492 Y110.87 E9.63902
G1 X108.357 Y110.617 E9.64855
G1 X108.247 Y110.073 E9.66701
G1 X108.294 Y109.507 E9.6859
G1 X108.57 Y108.982 E9.70563
G1 X108.885 Y108.645 E9.72097
G1 X109.282 Y108.403 E9.73644
G1 X109.696 Y108.271 E9.75089
G1 X110.131 Y108.248 E9.76538
G1 X110.668 Y108.376 E9.78374
G1 X111.055 Y108.6 E9.79861
G1 X111.36 Y108.894 E9.8127
G1 X111.681 Y109.406 E9.8328
G1 X111.753 Y110.009 E9.853
G1 X111.701 Y110.435 E9.86727
G1 X111.475 Y110.954 E9.8861
G1 X111.085 Y111.383 E9.90538
G1 X110.588 Y111.654 E9.92421
G1 X110.14 Y111.75 E9.93945
G0 F6000 X109.433 Y111.226
;TYPE:WALL-OUTER
G1 F900 X108.979 Y110.916 E9.95774
G1 X108.843 Y110.677 E9.96688
G1 X108.745 Y110.497 E9.9737
G1 X108.652 Y110.07 E9.98823
G1 X108.691 Y109.608 E10.00365
G1 X108.9 Y109.217 E10.0184
G1 X109.132 Y108.962 E10.02987
G1 X109.438 Y108.771 E10.04186
G1 X109.749 Y108.672 E10.05272
G1 X110.092 Y108.652 E10.06415
G1 X110.514 Y108.751 E10.07856
G1 X110.814 Y108.92 E10.09002
G1 X111.054 Y109.152 E10.10112
G1 X111.291 Y109.536 E10.11613
G1 X111.352 Y109.987 E10.13126
G1 X111.312 Y110.324 E10.14255
G1 X111.125 Y110.748 E10.15796
G1 X110.82 Y111.077 E10.17289
G1 X110.445 Y111.275 E10.18699
G1 X110.111 Y111.346 E10.19835
G1 X109.747 Y111.327 E10.21047
G1 X109.433 Y111.226 E10.22144
G1 F1200 E7.22144
G0 F6000 X109.219 Y111.893
G0 X110.144 Y112.328
G0 X110.174 Y112.757
G0 X110.359 Y112.944
;TYPE:WALL-INNER
G1 F1200 E10.22144
G1 F900 X110.757 Y112.869 E10.23491
G1 X111.074 Y112.762 E10.24604
G1 X111.376 Y112.629 E10.25701
G1 X111.653 Y112.458 E10.26784
G1 X111.93 Y112.255 E10.27926
G1 X112.172 Y112.015 E10.2906
G1 X112.346 Y111.81 E10.29954
G1 X112.539 Y111.534 E10.31074
G1 X112.693 Y111.238 E10.32184
G1 X112.792 Y110.992 E10.33066
G1 X112.87 Y110.735 E10.3396
G1 X112.926 Y110.473 E10.34851
G1 X112.956 Y110.208 E10.35738
G1 X112.962 Y109.951 E10.36593
G1 X112.941 Y109.602 E10.37756
G1 X112.874 Y109.276 E10.38862
G1 X112.797 Y109.02 E10.39752
